T: Mountcashel Brigade's March, The
M: 4/4
L: 1/8
K: Dmaj
A2 |d2 f>e de dB | A>B AG F2 A2 | d2 f>e de fg | e2 a>b ag fe |
d2 f>e de dB | A>B AG F2 A2 | ag fe fe dc | d2 d>e d2 ||
ef/g/ |a>b ag f>g fe | d2 d>e fd ef | g>a  gf e>f ed | c2 A>B cA Bc |
d2 d2 ce cA | B>A Bc d2 b2 | a>b ef ge cA | d2 d>e d2 |]
